src/assets/icons/weeks,fancy,25.svg

<svg width="48" height="48" viewBox="0 0 48 48" fill="none" xmlns="http://www.w3.org/2000/svg">
<rect opacity="0.2" x="4" y="6" width="40" height="40" rx="4" fill="black"/>
<path d="M7.80877 41H22.3258V37.4801H13.7747V37.3409L16.7477 34.4276C20.9338 30.6094 22.0574 28.7003 22.0574 26.3835C22.0574 22.8537 19.1738 20.358 14.8088 20.358C10.5332 20.358 7.59996 22.9134 7.60991 26.9105H11.6966C11.6866 24.9616 12.9196 23.7685 14.7789 23.7685C16.5687 23.7685 17.9011 24.8821 17.9011 26.6719C17.9011 28.2926 16.9068 29.4062 15.0574 31.1861L7.80877 37.8977V41ZM32.883 41.2784C37.4171 41.2784 40.4995 38.3253 40.4895 34.2088C40.4995 30.3111 37.775 27.5071 34.106 27.5071C32.3162 27.5071 30.775 28.2528 30.0591 29.2571H29.9398L30.4668 24.1562H39.3659V20.6364H26.9171L25.9526 31.375L29.7807 32.0611C30.4071 31.2159 31.6202 30.6889 32.8233 30.6889C34.8716 30.6989 36.3432 32.1804 36.3432 34.3182C36.3432 36.4361 34.9015 37.8977 32.883 37.8977C31.1728 37.8977 29.7907 36.8239 29.6912 35.2429H25.5151C25.5946 38.7628 28.6671 41.2784 32.883 41.2784Z" fill="black"/>
<g opacity="0.4">
<path d="M10 4C10 2.89543 10.8954 2 12 2C13.1046 2 14 2.89543 14 4V8C14 9.10457 13.1046 10 12 10C10.8954 10 10 9.10457 10 8V4Z" fill="black"/>
<path d="M34 4C34 2.89543 34.8954 2 36 2C37.1046 2 38 2.89543 38 4V8C38 9.10457 37.1046 10 36 10C34.8954 10 34 9.10457 34 8V4Z" fill="black"/>
</g>
<path fill-rule="evenodd" clip-rule="evenodd" d="M10 6.00869C7.52043 6.04456 6.11466 6.22849 5.17157 7.17157C4 8.34315 4 10.2288 4 14V16H44V14C44 10.2288 44 8.34315 42.8284 7.17157C41.8853 6.22849 40.4796 6.04456 38 6.00869V8C38 9.10457 37.1046 10 36 10C34.8954 10 34 9.10457 34 8V6H14V8C14 9.10457 13.1046 10 12 10C10.8954 10 10 9.10457 10 8V6.00869Z" fill="black"/>
</svg>

<svg xmlns="http://www.w3.org/2000/svg" width="48" height="48" fill="none" viewBox="0 0 48 48">
  <rect width="40" height="40" x="4" y="6" fill="#000" opacity=".2" rx="4"/>
  <path fill="#000" d="M7.809 41h14.517v-3.52h-8.551v-.14l2.973-2.912c4.186-3.819 5.31-5.728 5.31-8.044 0-3.53-2.884-6.026-7.25-6.026-4.275 0-7.208 2.555-7.198 6.552h4.087c-.01-1.948 1.223-3.142 3.082-3.142 1.79 0 3.122 1.114 3.122 2.904 0 1.62-.994 2.734-2.844 4.514L7.81 37.898V41zm25.074.278c4.534 0 7.616-2.953 7.606-7.07.01-3.897-2.714-6.7-6.383-6.7-1.79 0-3.331.745-4.047 1.75h-.12l.528-5.102h8.899v-3.52H26.917l-.964 10.739 3.828.686c.626-.845 1.84-1.372 3.042-1.372 2.049.01 3.52 1.491 3.52 3.63 0 2.117-1.442 3.579-3.46 3.579-1.71 0-3.092-1.074-3.192-2.655h-4.176c.08 3.52 3.152 6.035 7.368 6.035z"/>
  <g opacity=".4">
    <path fill="#000" d="M10 4a2 2 0 114 0v4a2 2 0 11-4 0V4zM34 4a2 2 0 114 0v4a2 2 0 11-4 0V4z"/>
  </g>
  <path fill="#000" fill-rule="evenodd" d="M10 6.009c-2.48.036-3.885.22-4.828 1.163C4 8.343 4 10.229 4 14v2h40v-2c0-3.771 0-5.657-1.172-6.828-.943-.944-2.348-1.127-4.828-1.163V8a2 2 0 11-4 0V6H14v2a2 2 0 11-4 0V6.009z" clip-rule="evenodd"/>
</svg>
